packages/icons/web/battery_charging_large.svg

<svg width="24" height="24" viewBox="0 0 24 24" fill="none" xmlns="http://www.w3.org/2000/svg">
<path d="M6.4003 17H4.5C3.53514 17 3 16.4645 3 15.5071V8.57329C3 7.61593 3.53514 7 4.5 7H7.43978M15.1354 7H16.5C17.4649 7 18 7.61593 18 8.57329V15.5071C18 16.4645 17.4649 17 16.5 17H14.096" stroke="#212933" stroke-width="2" stroke-linecap="round" stroke-linejoin="round"/>
<path d="M21 13V11" stroke="#212933" stroke-width="2" stroke-linecap="round" stroke-linejoin="round"/>
<path d="M11.4995 7L8.14648 11.7882H13.3876L9.49951 17" stroke="#212933" stroke-width="2" stroke-linecap="round" stroke-linejoin="round"/>
</svg>

<svg width="24" height="24" fill="none" xmlns="http://www.w3.org/2000/svg">
    <path d="M6.4 17H4.5c-.965 0-1.5-.535-1.5-1.493V8.573C3 7.616 3.535 7 4.5 7h2.94m7.695 0H16.5c.965 0 1.5.616 1.5 1.573v6.934c0 .958-.535 1.493-1.5 1.493h-2.404M21 13v-2m-9.5-4l-3.354 4.788h5.242L9.5 17" stroke="currentColor" stroke-width="2" stroke-linecap="round" stroke-linejoin="round"/>
</svg>
